!!!COM: Felix Mendelssohn
!!!CNT: Deutsch
!!!TXO: Deutsch
!!!OTL: Es weiss und ra2th es doch Keiner
!!!LYR: Eichendorff
!!!OPS: Op. 99
!!!ONM: No. 6
!!!ENC: Daniel Alt & Leigh VanHandel
!!!YOR: Sa2mmtliche Lieder fu2r eine Singstimme
!!!YOR: Neu revidirt von Dr. L. Benda, Ausgabe fu2r mittlere Stimme
!!!YOR: Braunschweig. Henry Litolff's Verlag. Boston and New York: Arthur P. Schmidt.
!!!ODT: 1842/
**kern	**silbe
*staff1	*
=1-	=1
*clefG2	*
*k[b-e-a-d-]	*
*M6/8	*
4r	.
8r	.
4r	.
{8f	{Es
=2	=2
4cc	weiss
8cc	und
8cc	ra2th
8b-	es
8cc	doch
=3	=3
4.dd-	Kei-
4b-	-ner,
8r	.
=4	=4
8g	wie
8b-	mire
8a-	so
8cc	wohl
8.a-	ist,
16g	so
=5	=5
[4.g	wohl!
8g]}	|}
8r	.
{8g	{Ach,
=6	=6
8a-	wu2sst’
8a-	es
8a-	nur
4cc	Ei-
16b-	-ner,
16a-	nur
=7	=7
[4a-	Ei-
16a-]	|
16b-	|
4b-	-ner,
8b-	kein
=8	=8
8cc	Mensch
8b-	es
8cc	sonst
8ee-	wis-
8b-	|
8dd-	-sen
=9	=9
[4.cc	soll,
4cc]}	|}
{8b-	{kein
=10	=10
8a-	Mensch
8g	es
8a-	sonst
8cc	wis-
8g	|
8a-	-sen
=11	=11
4f}	soll!}
8r	.
4r	.
{8cc	{So
=12	=12
8g	still
8b-	ist’s
8a-	nicht
8cc	drau-
8.a-	-ssen
16g	im
=13	=13
[4.g	Schnee,
8g]	|
8r	.
8cc	so
=14	=14
8g	stumm
8b-	und
8a-	ver-
8cc	-schwie-
8.a-	|
16g	-gen
=15	=15
4g}	sind}
{8g	{die
[4.cc	Ster-
=16	=16
8cc]	|
8cc	-ne
8cc	nicht
8bn	in
8cc	|
8ddn	der
=17	=17
4cc	Ho2h’
8cc	als
8cc	mei-
8a-	-ne
8f	Ge-
=18	=18
[4.en	-dan-
4e]	|
8dn	-ken
=19	=19
4c}	sind.}
8r	.
4r	.
{8c	{Es
=20	=20
4cc	weiss
8cc	und
8cc	ra2th
8b-	es
8cc	doch
=21	=21
4.dd-	Kei-
4b-}	-ner,}
8r	.
=22	=22
{8g	{wie
8b-	mir
8a-	so
8cc	wohl
8.a-	ist,
16g	so
=23	=23
[4.g	wohl!
4g]	|
8g	so
=24	=24
[4.b-	wohl!
4b-]}	|}
{8b-	{Ich
=25	=25
*k[b-]	*
*met(C)	*
*M4/4	*
4.a	wu2nscht’,
8a	es
4a	wa2-
8g	-re
8a	schon
=26	=26
2cc	Mor-
4a	-gen,
4g	da
=27	=27
4f	flie-
8g	-gen
8a	zwei
4b-	Ler-
4dd	-chen
=28	=28
2.cc}	auf,}
{4g	{die
=29	=29
4a	u2-
4a	-ber-
4cc	-flie-
8cc	-gen
8cc	ein-
=30	=30
2ff	-an-
4ee	-der,
4dd	mein
=31	=31
4cc	Herz
4a	folgt
4f	ih-
4g	-rem
=32	=32
2a}	Lauf,}
4r	.
{4g	{die
=33	=33
4a	u2-
4a	-ber-
4cc	-flie-
8cc	-gen
8cc	ein-
=34	=34
2ff	-an-
4ee	|
4dd	|
=35	=35
2cc}	-der,}
4r	.
{4cc	{Mein
=36	=36
2.ee	Herz,
4cc	mein
=37	=37
2ee	Herz
2cc	folgt
=38	=38
2g	ih-
bnq	|
4a	|
4g	-rem
=39	=39
2cc}	Lauf.}
4r	.
{4cc	{Ich
=40	=40
4cc	wu2nsch-
8a	-te,
8g	ich
4g-	wa2-
8a	-re
8b-	ein
=41	=41
4.cc	Vo2g-
8a	|
4g-	-lein,
4g-	und
=42	=42
4g	zo2-
4g	-ge
b-q	u2-
4a	|
8g	-ber
8a	das
=43	=43
2b-}	Meer,}
4r	.
{4dd-	{ich
=44	=44
4dd	wu2nsch-
8b-	-te,
8a	ich
4g	wa2-
8b-	-re
8dd-	ein
=45	=45
4.dd	Vo2g-
8b-	|
4g	-lein,
4g	und
=46	=46
4g	zo2-
4g	-ge
4bn	u2-
8a	-ber
8g	das
=47	=47
2cc}	Meer,}
4r	.
{4g	{und
=48	=48
4g	zo2-
4g	-ge
4bn	u2-
8a	-ber
8g	das
=49	=49
2.cc}	Meer,}
{4b-	{wohl
=50	=50
4a	u2-
8a	-ber
8a	das
4cc	meer
4cc	und
=51	=51
2ff	wei-
4ee	-ter,
4dd	bis
=52	=52
4cc	dass
8a	ich
8g	im
4f	Him-
4g	-mel
=53	=53
2a}	wa2r’!}
4r	.
{4g	{Wohl
=54	=54
4a	u2-
8a	-ber
8a	das
4.cc	Meer
8cc	und
=55	=55
[1ff	wei-
=56	=56
2ff]	|
4ee	-ter,
4dd	bis
=57	=57
4cc	dass
8a	ich
8f	im
4a	Him-
4g	-mel
=58	=58
2f}	sa2r’,}
4r	.
{4cc	{bis
=59	=59
2a	dass,
4r	.
4cc	bis
=60	=60
2a	dass
4ee	ich
4dd	im
=61	=61
2cc	Him-
4g	|
4b-	-mel
=62	=62
2a}	wa2r’,}
4r	.
{4cc	{bis
=63	=63
2a	dass,
4r	.
4cc	bis
=64	=64
4a	dass
4ff	|
4ee	ich
4dd	im
=65	=65
4cc	Him-
4g	|
4a	-mel
4cc	|
=66	=66
4cc	wa2r’,
4b-	bis
4b-	dass
8a	ich
8g	im
=67	=67
4f	Him-
4e	|
4a	|
4g	-mel
=68	=68
2f}	wa2r’,}
4r	.
{4cc	{im
=69	=69
2cc	Him-
eeq	|
4dd	|
4cc	-mel
=70	=70
2cc}	wa2r’,}
4r	.
{4a	{im
=71	=71
2g	Him-
b-q	|
4a	|
4g	-mel
=72	=72
2f}	wa2r’!}
2r	.
==	==
*-	*-
